; generated by PrusaSlicer 2.7.1+MacOS-arm64 on 2023-12-28 at 20:03:55 UTC


;
;

;
;

;
;

;
;
; 

; external perimeters extrusion width = 0.45mm
; perimeters extrusion width = 0.45mm
; infill extrusion width = 0.45mm
; solid infill extrusion width = 0.45mm
; top infill extrusion width = 0.42mm
; first layer extrusion width = 0.50mm

; external perimeters extrusion width = 0.45mm
; perimeters extrusion width = 0.45mm
; infill extrusion width = 0.45mm
; solid infill extrusion width = 0.45mm
; top infill extrusion width = 0.42mm
; first layer extrusion width = 0.50mm

M73 P0 R61
M201 X4000 Y4000 Z200 E2500 ; sets maximum accelerations, mm/sec^2
M203 X300 Y300 Z40 E100 ; sets maximum feedrates, mm / sec
M204 P4000 R1200 T4000 ; sets acceleration (P, T) and retract acceleration (R), mm/sec^2
M205 X8.00 Y8.00 Z2.00 E10.00 ; sets the jerk limits, mm/sec
M205 S0 T0 ; sets the minimum extruding and travel feed rate, mm/sec

; printing object laserCorner3.stl id:0 copy 0
; stop printing object laserCorner3.stl id:0 copy 0
; printing object laserCorner4.stl id:1 copy 0
; stop printing object laserCorner4.stl id:1 copy 0

;TYPE:Custom
M17 ; enable steppers
M862.1 P0.4 ; nozzle diameter check
M862.3 P "MK4" ; printer model check
M862.5 P2 ; g-code level check
M862.6 P"Input shaper" ; FW feature check
M115 U5.0.0+12061

M555 X85.65 Y29.1 W78.7 H147.8

G90 ; use absolute coordinates
M83 ; extruder relative mode

M140 S85 ; set bed temp
M104 T0 S195 ; set extruder temp for bed leveling
M109 T0 R195 ; wait for temp

M84 E ; turn off E motor

G28 ; home all without mesh bed level

G1 X42 Y-4 Z5 F4800

M302 S160 ; lower cold extrusion limit to 160C


G1 E-2 F2400 ; retraction


M84 E ; turn off E motor

G29 P9 X10 Y-4 W32 H4



G0 Z40 F10000

M190 S85 ; wait for bed temp

M107

;
; MBL
;
M84 E ; turn off E motor
G29 P1 ; invalidate mbl & probe print area
G29 P1 X0 Y0 W50 H20 C ; probe near purge place
G29 P3.2 ; interpolate mbl probes
G29 P3.13 ; extrapolate mbl outside probe area
G29 A ; activate mbl

; prepare for purge
M104 S240
G0 X0 Y-4 Z15 F4800 ; move away and ready for the purge
M109 S240

G92 E0
M569 S0 E ; set spreadcycle mode for extruder

;
; Extrude purge line
;
G92 E0 ; reset extruder position
G1 E2 F2400 ; deretraction after the initial one before nozzle cleaning
G0 E7 X15 Z0.2 F500 ; purge
G0 X25 E4 F500 ; purge
G0 X35 E4 F650 ; purge
G0 X45 E4 F800 ; purge
G0 X48 Z0.05 F8000 ; wipe, move close to the bed
G0 X51 Z0.2 F8000 ; wipe, move quickly away from the bed

G92 E0
M221 S100 ; set flow to 100%
G21 ; set units to millimeters
G90 ; use absolute coordinates
M83 ; use relative distances for extrusion
M900 K0.07 ; Filament gcode


M572 S0.055 ; Filament gcode


M142 S36 ; set heatbreak target temp
M107
;LAYER_CHANGE
;Z:0.2
;HEIGHT:0.2
;BEFORE_LAYER_CHANGE
G92 E0.0
;0.2
M201 X4000 Y4000
M74 W0

G1 E-.8 F2100
G1 Z.2 F720
;AFTER_LAYER_CHANGE
;0.2
; printing object laserCorner3.stl id:0 copy 0
G1 X115.931 Y138.901 F18000
G1 Z.2 F720
G1 E.8 F2100
M204 P500
;TYPE:Perimeter
;WIDTH:0.499999
G1 F2400
G1 X116.003 Y138.894 E.00275
G1 X116.293 Y138.762 E.01211
G1 X116.491 Y138.516 E.012
G1 X116.557 Y138.221 E.01149
G1 X116.557 Y108.907 E1.11412
G1 X163.443 Y108.907 E1.78196
G1 X163.443 Y128.395 E.74067
G1 X163.443 Y175.993 E1.80902
G1 X86.557 Y175.993 E2.92215
G1 X86.557 Y138.907 E1.4095
G1 X115.871 Y138.907 E1.11412
M204 P4000
M204 T4000
G1 X115.871 Y138.45 F18000
M204 P500
;TYPE:External perimeter
G1 F2400
G1 X116.028 Y138.388 E.00642
G1 X116.1 Y138.225 E.00677
G1 X116.1 Y108.45 E1.13164
G1 X163.9 Y108.45 E1.8167
G1 X163.9 Y128.395 E.75804
G1 X163.9 Y176.45 E1.82639
G1 X86.1 Y176.45 E2.95689
M73 P0 R60
G1 X86.1 Y138.45 E1.44424
G1 X115.811 Y138.45 E1.1292
M204 P4000
G1 E-.16 F2100
;WIPE_START
G1 F14400
G1 X115.871 Y138.45 E-.00831
G1 X116.028 Y138.388 E-.02339
G1 X116.1 Y138.225 E-.02469
G1 X116.1 Y134.012 E-.58361
;WIPE_END
G1 Z.4 F720
G1 X154.426 Y166.168 F18000
G1 Z.2 F720
G1 E.8 F2100
M204 P500
;TYPE:Perimeter
G1 F2400
G1 X154.046 Y166.57 E.02102
G1 X153.628 Y166.968 E.02194
G1 X153.191 Y167.343 E.02189
G1 X152.734 Y167.694 E.0219
G1 X152.26 Y168.021 E.02189
G1 X151.769 Y168.323 E.02191
G1 X151.263 Y168.599 E.02191
G1 X150.743 Y168.848 E.02191
G1 X150.211 Y169.069 E.02189
G1 X149.668 Y169.263 E.02191
G1 X149.116 Y169.427 E.02189
G1 X148.556 Y169.563 E.0219
G1 X147.99 Y169.669 E.02189
G1 X147.418 Y169.745 E.02193
G1 X146.844 Y169.791 E.02189
G1 X146.268 Y169.807 E.0219
G1 X145.692 Y169.793 E.0219
G1 X145.117 Y169.749 E.02192
G1 X144.546 Y169.674 E.02189
G1 X143.979 Y169.57 E.02191
G1 X143.419 Y169.437 E.02188
G1 X142.866 Y169.274 E.02191
G1 X142.322 Y169.082 E.02193
G1 X141.789 Y168.863 E.0219
G1 X141.269 Y168.615 E.0219
G1 X140.762 Y168.341 E.0219
G1 X140.27 Y168.041 E.0219
G1 X139.795 Y167.715 E.0219
G1 X139.337 Y167.365 E.02191
G1 X138.898 Y166.992 E.02189
G1 X138.48 Y166.596 E.02188
G1 X138.082 Y166.178 E.02194
G1 X137.707 Y165.741 E.02189
G1 X137.356 Y165.284 E.0219
G1 X137.029 Y164.81 E.02189
G1 X136.727 Y164.319 E.02191
G1 X136.451 Y163.813 E.02191
G1 X136.202 Y163.293 E.02191
G1 X135.981 Y162.761 E.02189
G1 X135.787 Y162.218 E.02191
G1 X135.623 Y161.666 E.02189
G1 X135.487 Y161.106 E.0219
G1 X135.381 Y160.54 E.02189
G1 X135.305 Y159.968 E.02193
G1 X135.259 Y159.394 E.02189
G1 X135.243 Y158.818 E.0219
G1 X135.257 Y158.242 E.0219
G1 X135.302 Y157.667 E.02192
G1 X135.376 Y157.096 E.02188
G1 X135.48 Y156.529 E.02191
G1 X135.613 Y155.969 E.02188
G1 X135.776 Y155.416 E.02191
G1 X135.968 Y154.872 E.02193
G1 X136.187 Y154.339 E.0219
G1 X136.435 Y153.819 E.0219
G1 X136.709 Y153.312 E.0219
G1 X137.009 Y152.82 E.0219
G1 X137.335 Y152.345 E.0219
G1 X137.685 Y151.887 E.02191
G1 X138.058 Y151.448 E.02189
G1 X138.454 Y151.03 E.02188
G1 X138.872 Y150.632 E.02194
G1 X139.309 Y150.257 E.02189
G1 X139.766 Y149.906 E.0219
G1 X140.231 Y149.585 E.02147
G1 X140.73 Y149.277 E.02229
G1 X141.237 Y149.001 E.02194
G1 X141.757 Y148.752 E.02191
G1 X142.289 Y148.531 E.02189
G1 X142.832 Y148.337 E.02191
G1 X143.384 Y148.173 E.02189
G1 X143.944 Y148.037 E.0219
G1 X144.51 Y147.931 E.02189
G1 X145.082 Y147.855 E.02193
G1 X145.656 Y147.809 E.02189
G1 X146.221 Y147.793 E.02148
G1 X146.807 Y147.807 E.02228
G1 X147.383 Y147.852 E.02196
G1 X147.954 Y147.926 E.02188
G1 X148.521 Y148.03 E.02191
G1 X149.081 Y148.163 E.02188
G1 X149.634 Y148.326 E.02191
G1 X150.178 Y148.518 E.02193
G1 X150.711 Y148.737 E.0219
G1 X151.231 Y148.985 E.0219
G1 X151.738 Y149.259 E.0219
G1 X152.23 Y149.559 E.0219
G1 X152.705 Y149.885 E.0219
G1 X153.163 Y150.235 E.02191
G1 X153.602 Y150.608 E.02189
G1 X154.02 Y151.004 E.02188
G1 X154.418 Y151.422 E.02194
G1 X154.793 Y151.859 E.02189
G1 X155.151 Y152.325 E.02233
G1 X155.471 Y152.79 E.02145
G1 X155.773 Y153.281 E.02191
G1 X156.049 Y153.787 E.02191
G1 X156.298 Y154.307 E.02191
G1 X156.519 Y154.839 E.02189
G1 X156.713 Y155.382 E.02191
G1 X156.877 Y155.934 E.02189
G1 X157.013 Y156.494 E.0219
G1 X157.119 Y157.06 E.02189
G1 X157.195 Y157.632 E.02193
G1 X157.241 Y158.206 E.02189
G1 X157.257 Y158.782 E.0219
G1 X157.243 Y159.358 E.0219
G1 X157.199 Y159.933 E.02192
G1 X157.124 Y160.504 E.02189
G1 X157.02 Y161.071 E.02191
G1 X156.887 Y161.631 E.02188
G1 X156.724 Y162.184 E.02191
G1 X156.532 Y162.728 E.02193
G1 X156.313 Y163.26 E.02187
G1 X156.065 Y163.781 E.02193
G1 X155.791 Y164.288 E.0219
G1 X155.491 Y164.78 E.0219
G1 X155.165 Y165.255 E.0219
G1 X154.815 Y165.713 E.02191
G1 X154.466 Y166.123 E.02046
M204 P4000
G1 X154.098 Y165.851 F18000
M204 P500
;TYPE:External perimeter
G1 F2400
G1 X154.094 Y165.855 E.00021
G1 X153.714 Y166.256 E.021
G1 X153.314 Y166.636 E.02097
G1 X152.894 Y166.995 E.021
G1 X152.456 Y167.332 E.021
G1 X152.001 Y167.645 E.02099
G1 X151.53 Y167.934 E.021
G1 X151.045 Y168.197 E.02097
G1 X150.547 Y168.435 E.02098
G1 X150.036 Y168.647 E.02103
G1 X149.516 Y168.832 E.02098
G1 X148.986 Y168.989 E.02101
G1 X148.449 Y169.118 E.02099
G1 X147.906 Y169.219 E.02099
G1 X147.359 Y169.292 E.02097
G1 X146.808 Y169.335 E.02101
G1 X146.256 Y169.35 E.02099
G1 X145.704 Y169.336 E.02099
G1 X145.153 Y169.293 E.02101
G1 X144.606 Y169.221 E.02097
G1 X144.062 Y169.121 E.02102
G1 X143.525 Y168.992 E.02099
G1 X142.996 Y168.835 E.02097
G1 X142.475 Y168.651 E.021
G1 X141.964 Y168.44 E.02101
G1 X141.466 Y168.203 E.02096
G1 X140.98 Y167.94 E.021
G1 X140.509 Y167.651 E.021
G1 X140.054 Y167.339 E.02097
G1 X139.615 Y167.003 E.02101
G1 X139.195 Y166.644 E.021
G1 X138.794 Y166.264 E.021
G1 X138.414 Y165.864 E.02097
G1 X138.055 Y165.444 E.021
G1 X137.718 Y165.006 E.021
G1 X137.405 Y164.551 E.02099
G1 X137.116 Y164.08 E.021
G1 X136.853 Y163.595 E.02097
G1 X136.615 Y163.097 E.02098
G1 X136.403 Y162.586 E.02103
G1 X136.218 Y162.066 E.02098
G1 X136.061 Y161.536 E.02101
G1 X135.932 Y160.999 E.02099
G1 X135.831 Y160.456 E.02099
G1 X135.758 Y159.909 E.02097
G1 X135.715 Y159.358 E.02101
G1 X135.7 Y158.806 E.02099
G1 X135.714 Y158.254 E.02099
G1 X135.757 Y157.703 E.02101
G1 X135.829 Y157.156 E.02097
G1 X135.929 Y156.612 E.02102
G1 X136.058 Y156.075 E.02099
G1 X136.215 Y155.546 E.02097
G1 X136.399 Y155.025 E.021
G1 X136.61 Y154.514 E.02101
G1 X136.847 Y154.016 E.02096
G1 X137.11 Y153.53 E.021
G1 X137.399 Y153.059 E.021
G1 X137.711 Y152.604 E.02097
G1 X138.047 Y152.165 E.02101
G1 X138.406 Y151.745 E.021
G1 X138.786 Y151.344 E.021
G1 X139.186 Y150.964 E.02097
G1 X139.606 Y150.605 E.021
G1 X140.044 Y150.268 E.021
G1 X140.49 Y149.961 E.02058
G1 X140.97 Y149.667 E.02139
G1 X141.455 Y149.403 E.02099
G1 X141.953 Y149.165 E.02098
G1 X142.464 Y148.953 E.02103
G1 X142.984 Y148.768 E.02098
G1 X143.514 Y148.611 E.02101
G1 X144.051 Y148.482 E.02099
G1 X144.594 Y148.381 E.02099
G1 X145.141 Y148.308 E.02097
G1 X145.692 Y148.265 E.02101
G1 X146.233 Y148.25 E.02057
G1 X146.796 Y148.264 E.0214
G1 X147.347 Y148.307 E.02101
G1 X147.894 Y148.379 E.02097
G1 X148.438 Y148.479 E.02102
G1 X148.975 Y148.608 E.02099
G1 X149.504 Y148.765 E.02097
G1 X150.025 Y148.949 E.021
G1 X150.536 Y149.16 E.02101
G1 X151.034 Y149.397 E.02096
G1 X151.52 Y149.66 E.021
G1 X151.991 Y149.949 E.021
G1 X152.446 Y150.261 E.02097
G1 X152.885 Y150.597 E.02101
G1 X153.305 Y150.956 E.021
G1 X153.706 Y151.336 E.021
G1 X154.086 Y151.736 E.02097
G1 X154.445 Y152.156 E.021
G1 X154.788 Y152.603 E.02141
G1 X155.095 Y153.049 E.02058
G1 X155.384 Y153.52 E.021
G1 X155.647 Y154.005 E.02097
G1 X155.885 Y154.503 E.02098
G1 X156.097 Y155.014 E.02103
G1 X156.282 Y155.534 E.02098
G1 X156.439 Y156.064 E.02101
G1 X156.568 Y156.601 E.02099
G1 X156.669 Y157.144 E.02099
G1 X156.742 Y157.691 E.02097
G1 X156.785 Y158.242 E.02101
G1 X156.8 Y158.794 E.02099
G1 X156.786 Y159.346 E.02099
G1 X156.743 Y159.897 E.02101
G1 X156.671 Y160.444 E.02097
G1 X156.571 Y160.988 E.02102
G1 X156.442 Y161.525 E.02099
G1 X156.285 Y162.054 E.02097
G1 X156.101 Y162.575 E.021
G1 X155.89 Y163.086 E.02101
G1 X155.653 Y163.584 E.02096
G1 X155.39 Y164.07 E.021
G1 X155.101 Y164.541 E.021
G1 X154.789 Y164.996 E.02097
G1 X154.453 Y165.435 E.02101
G1 X154.137 Y165.805 E.01849
M204 P4000
G1 E-.16 F2100
;WIPE_START
G1 F14400
G1 X154.098 Y165.851 E-.00836
G1 X154.094 Y165.855 E-.00078
G1 X153.714 Y166.256 E-.07654
G1 X153.314 Y166.636 E-.07644
G1 X152.894 Y166.995 E-.07655
G1 X152.456 Y167.332 E-.07656
G1 X152.001 Y167.645 E-.07651
G1 X151.53 Y167.934 E-.07656
G1 X151.045 Y168.197 E-.07644
G1 X150.547 Y168.435 E-.07647
G1 X150.422 Y168.487 E-.01879
;WIPE_END
G1 Z.4 F720
G1 X163.26 Y110.017 F18000
G1 Z.2 F720
G1 E.8 F2100
M204 P500
;TYPE:Solid infill
;WIDTH:0.501521
G1 F2400
G1 X162.539 Y109.296 E.03888
G1 X161.89 Y109.296 E.02475
G1 X163.054 Y110.46 E.06277
G1 X163.054 Y111.109 E.02475
G1 X161.241 Y109.296 E.09777
G1 X160.593 Y109.296 E.02471
G1 X163.054 Y111.757 E.13272
G1 X163.054 Y112.406 E.02475
G1 X159.944 Y109.296 E.16772
G1 X159.296 Y109.296 E.02471
G1 X163.054 Y113.054 E.20266
G1 X163.054 Y113.703 E.02475
G1 X158.647 Y109.296 E.23766
G1 X157.999 Y109.296 E.02471
G1 X163.054 Y114.351 E.27261
G1 X163.054 Y115 E.02475
G1 X157.35 Y109.296 E.30761
G1 X156.702 Y109.296 E.02471
G1 X163.054 Y115.648 E.34255
G1 X163.054 Y116.297 E.02475
G1 X156.053 Y109.296 E.37755
G1 X155.404 Y109.296 E.02475
G1 X163.054 Y116.946 E.41255
G1 X163.054 Y117.594 E.02471
G1 X154.756 Y109.296 E.44749
G1 X154.107 Y109.296 E.02475
G1 X163.054 Y118.243 E.48249
G1 X163.054 Y118.891 E.02471
G1 X153.459 Y109.296 E.51744
G1 X152.81 Y109.296 E.02475
G1 X163.054 Y119.54 E.55244
G1 X163.054 Y120.188 E.02471
G1 X152.162 Y109.296 E.58738
G1 X151.513 Y109.296 E.02475
G1 X163.054 Y120.837 E.62238
G1 X163.054 Y121.486 E.02475
G1 X150.865 Y109.296 E.65735
G1 X150.216 Y109.296 E.02475
G1 X163.054 Y122.134 E.69233
G1 X163.054 Y122.783 E.02475
G1 X149.567 Y109.296 E.72733
G1 X148.919 Y109.296 E.02471
G1 X163.054 Y123.431 E.76227
G1 X163.054 Y124.08 E.02475
G1 X148.27 Y109.296 E.79727
G1 X147.622 Y109.296 E.02471
M73 P1 R60
G1 X163.054 Y124.728 E.83222
G1 X163.054 Y125.377 E.02475
G1 X146.973 Y109.296 E.86722
G1 X146.325 Y109.296 E.02471
G1 X163.054 Y126.025 E.90216
G1 X163.054 Y126.674 E.02475
G1 X145.676 Y109.296 E.93716
G1 X145.027 Y109.296 E.02475
G1 X163.054 Y127.323 E.97216
G1 X163.054 Y127.971 E.02471
G1 X144.379 Y109.296 E1.0071
G1 X143.73 Y109.296 E.02475
G1 X163.054 Y128.62 E1.0421
G1 X163.054 Y129.268 E.02471
G1 X143.082 Y109.296 E1.07705
G1 X142.433 Y109.296 E.02475
G1 X163.054 Y129.917 E1.11205
G1 X163.054 Y130.565 E.02471
G1 X141.785 Y109.296 E1.14699
G1 X141.136 Y109.296 E.02475
G1 X163.054 Y131.214 E1.18199
G1 X163.054 Y131.862 E.02471
G1 X140.488 Y109.296 E1.21694
G1 X139.839 Y109.296 E.02475
G1 X163.054 Y132.511 E1.25194
G1 X163.054 Y133.16 E.02475
G1 X139.19 Y109.296 E1.28694
G1 X138.542 Y109.296 E.02471
G1 X163.054 Y133.808 E1.32188
G1 X163.054 Y134.457 E.02475
G1 X137.893 Y109.296 E1.35688
G1 X137.245 Y109.296 E.02471
G1 X163.054 Y135.105 E1.39183
G1 X163.054 Y135.754 E.02475
G1 X136.596 Y109.296 E1.42683
G1 X135.948 Y109.296 E.02471
G1 X163.054 Y136.402 E1.46177
G1 X163.054 Y137.051 E.02475
G1 X135.299 Y109.296 E1.49677
G1 X134.651 Y109.296 E.02471
G1 X163.054 Y137.7 E1.53174
G1 X163.054 Y138.348 E.02471
G1 X134.002 Y109.296 E1.56672
G1 X133.353 Y109.296 E.02475
G1 X163.054 Y138.997 E1.60171
G1 X163.054 Y139.645 E.02471
G1 X132.705 Y109.296 E1.63666
G1 X132.056 Y109.296 E.02475
G1 X163.054 Y140.294 E1.67166
G1 X163.054 Y140.942 E.02471
G1 X131.408 Y109.296 E1.7066
G1 X130.759 Y109.296 E.02475
G1 X163.054 Y141.591 E1.7416
G1 X163.054 Y142.239 E.02471
G1 X130.111 Y109.296 E1.77655
G1 X129.462 Y109.296 E.02475
G1 X163.054 Y142.888 E1.81155
G1 X163.054 Y143.537 E.02475
G1 X128.813 Y109.296 E1.84655
G1 X128.165 Y109.296 E.02471
G1 X163.054 Y144.185 E1.88149
G1 X163.054 Y144.834 E.02475
G1 X127.516 Y109.296 E1.91649
G1 X126.868 Y109.296 E.02471
G1 X163.054 Y145.482 E1.95144
G1 X163.054 Y146.131 E.02475
G1 X126.219 Y109.296 E1.98644
G1 X125.571 Y109.296 E.02471
G1 X163.054 Y146.779 E2.02138
G1 X163.054 Y147.428 E.02475
G1 X124.922 Y109.296 E2.05638
G1 X124.274 Y109.296 E.02471
M73 P2 R60
G1 X163.054 Y148.076 E2.09133
G1 X163.054 Y148.725 E.02475
G1 X123.625 Y109.296 E2.12633
G1 X122.976 Y109.296 E.02475
G1 X163.054 Y149.374 E2.16132
G1 X163.054 Y150.022 E.02471
G1 X122.328 Y109.296 E2.19627
G1 X121.679 Y109.296 E.02475
G1 X163.054 Y150.671 E2.23127
G1 X163.054 Y151.319 E.02471
M73 P2 R59
G1 X121.031 Y109.296 E2.26621
G1 X120.382 Y109.296 E.02475
G1 X163.054 Y151.968 E2.30121
G1 X163.054 Y152.616 E.02471
G1 X119.734 Y109.296 E2.33616
G1 X119.085 Y109.296 E.02475
G1 X163.054 Y153.265 E2.37116
G1 X163.054 Y153.913 E.02471
G1 X118.437 Y109.296 E2.4061
G1 X117.788 Y109.296 E.02475
G1 X163.054 Y154.562 E2.4411
G1 X163.054 Y155.211 E.02475
G1 X117.139 Y109.296 E2.4761
G1 X116.946 Y109.296 E.00736
G1 X116.946 Y109.75 E.01731
G1 X163.054 Y155.859 E2.48654
G1 X163.054 Y156.508 E.02475
G1 X116.946 Y110.399 E2.48654
G1 X116.946 Y111.047 E.02471
G1 X163.054 Y157.156 E2.48654
G1 X163.054 Y157.805 E.02475
G1 X116.946 Y111.696 E2.48654
G1 X116.946 Y112.345 E.02475
G1 X163.054 Y158.453 E2.48651
G1 X163.054 Y159.102 E.02475
G1 X116.946 Y112.993 E2.48654
G1 X116.946 Y113.642 E.02475
